build/flags/CAS.svg

<svg xmlns="http://www.w3.org/2000/svg" fill="none" viewBox="0 0 28 28" focusable="false"><defs><filter id="CAS_svg__a"><feColorMatrix values="0 0 0 0 1 0 0 0 0 1 0 0 0 0 1 0 0 0 1 0"/></filter></defs><mask id="CAS_svg__b" width="28" height="20" x="0" y="4" maskUnits="userSpaceOnUse"><g filter="url(#CAS_svg__a)"><rect width="28" height="20" y="4" fill="#FFF" rx="3"/><rect width="28" height="20" y="4" stroke="#969696" stroke-opacity="0" stroke-width="0" rx="3"/></g></mask><path fill="none" d="M0 0H28V28H0z"/><rect width="28" height="20" y="4" fill="#FFF" rx="3"/><rect width="28" height="20" y="4" rx="3"/><g mask="url(#CAS_svg__b)"><path fill="#19BFBF" d="M0 4H28V24H0z"/><path d="M0 4H28V24H0z"/><path fill="#FFF" fill-rule="evenodd" d="M5.4824 12.3686L5.93825 11.4569C5.97779 11.3778 5.98429 11.2863 5.95634 11.2024L5.58781 10.0969C5.4939 9.81513 5.7875 9.5605 6.05311 9.6933L6.55638 9.94494C6.62755 9.98052 6.7091 9.98947 6.78629 9.97017L9.33333 9.33342L11.9104 8.68914C11.969 8.67449 12.0226 8.64418 12.0653 8.60146L13.9024 6.76438C13.9649 6.70187 14.0497 6.66675 14.1381 6.66675L17 6.66675C17.1841 6.66675 17.3333 6.81599 17.3333 7.00008L17.3333 7.86201C17.3333 7.95042 17.2982 8.0352 17.2357 8.09771L17.1699 8.16351C16.9701 8.36335 17.094 8.70559 17.3754 8.73118L23.5136 9.2892C23.7474 9.31045 23.8866 9.56027 23.7816 9.77023L23.4255 10.4825C23.369 10.5954 23.2536 10.6667 23.1273 10.6667L21.4714 10.6667C21.383 10.6667 21.2982 10.7019 21.2357 10.7644L20.3814 11.6187C20.2062 11.7939 20.2766 12.0923 20.5117 12.1706L21.869 12.6231C21.9529 12.651 22.0222 12.7112 22.0617 12.7902L22.5176 13.7019C22.5999 13.8666 22.5332 14.0668 22.3685 14.1492L21.6315 14.5177C21.4668 14.6 21.4001 14.8002 21.4824 14.9649L21.7843 15.5686C21.8834 15.7668 21.7392 16.0001 21.5176 16.0001C21.4047 16.0001 21.3014 15.9363 21.2509 15.8353L20.8735 15.0804C20.7717 14.8769 20.5005 14.8329 20.3396 14.9938L19.569 15.7644C19.4389 15.8946 19.4389 16.1056 19.569 16.2358L19.9024 16.5691C19.9649 16.6316 20 16.7164 20 16.8048L20 17.7941C20 17.9203 19.9287 18.0357 19.8157 18.0922L18.737 18.6316C18.6908 18.6547 18.6397 18.6667 18.588 18.6667L17.4714 18.6667C17.383 18.6667 17.2982 18.7019 17.2357 18.7644L16.9024 19.0977C16.7722 19.2279 16.7722 19.4389 16.9024 19.5691L17.2357 19.9025C17.2982 19.965 17.3333 20.0497 17.3333 20.1382L17.3333 20.7941C17.3333 21.0419 17.0726 21.203 16.8509 21.0922L16.0484 20.6909C16.0163 20.6749 15.9871 20.6538 15.9618 20.6285L14.7049 19.3717C14.6796 19.3463 14.6585 19.3171 14.6425 19.285L14.332 18.664C14.2033 18.4067 13.8311 18.4222 13.7243 18.6893L12.7505 21.1239C12.6999 21.2504 12.5773 21.3334 12.441 21.3334L12.1784 21.3334C12.0669 21.3334 11.9629 21.2777 11.901 21.185L10.7226 19.4174C10.6861 19.3626 10.6667 19.2983 10.6667 19.2325L10.6667 18.2603C10.6667 18.1074 10.5626 17.9741 10.4142 17.937L8.41418 17.437C8.2038 17.3844 8 17.5435 8 17.7603L8 17.7941C8 17.9203 8.07133 18.0357 8.18426 18.0922L8.91968 18.4599C9.12318 18.5617 9.16719 18.8329 9.00631 18.9938L8.66667 19.3334L7.50322 20.4969C7.40176 20.5983 7.24677 20.6235 7.11844 20.5593L6.12349 20.0618C6.04442 20.0223 5.98429 19.953 5.95634 19.8691L5.35044 18.0514C5.33911 18.0174 5.33333 17.9818 5.33333 17.946L5.33333 17.4715C5.33333 17.3831 5.36845 17.2983 5.43096 17.2358L5.61863 17.0481C5.79384 16.8729 5.72341 16.5746 5.48833 16.4962L4.22792 16.0761C4.09181 16.0307 4 15.9033 4 15.7598L4 15.0001C4 14.816 4.14924 14.6667 4.33333 14.6667L5.92131 14.6667C5.97306 14.6667 6.0241 14.6788 6.07038 14.7019L7.03519 15.1843C7.19985 15.2667 7.40007 15.1999 7.4824 15.0353L7.85093 14.2982C7.93326 14.1336 7.86652 13.9333 7.70186 13.851L5.63148 12.8158C5.46682 12.7335 5.40007 12.5333 5.4824 12.3686ZM10 14.6667C10.3682 14.6667 10.6667 14.3683 10.6667 14.0001C10.6667 13.6319 10.3682 13.3334 10 13.3334C9.63181 13.3334 9.33333 13.6319 9.33333 14.0001C9.33333 14.3683 9.63181 14.6667 10 14.6667ZM22.6667 16.6667L22.6667 17.3334L21.9024 18.0977C21.6924 18.3077 21.8411 18.6667 22.1381 18.6667L22.4607 18.6667C22.5869 18.6667 22.7023 18.5954 22.7588 18.4825L23.3333 17.3334L22.6667 16.6667ZM22.6667 16.6667L23.0352 16.4825C23.2755 16.3623 23.19 16.0001 22.9213 16.0001C22.7807 16.0001 22.6667 16.1141 22.6667 16.2547L22.6667 16.6667ZM14 21.3334C14.3682 21.3334 14.6667 21.0349 14.6667 20.6667C14.6667 20.2986 14.3682 20.0001 14 20.0001C13.6318 20.0001 13.3333 20.2986 13.3333 20.6667C13.3333 21.0349 13.6318 21.3334 14 21.3334Z"/><path d="M5.4824 12.3686L5.93825 11.4569C5.97779 11.3778 5.98429 11.2863 5.95634 11.2024L5.58781 10.0969C5.4939 9.81513 5.7875 9.5605 6.05311 9.6933L6.55638 9.94494C6.62755 9.98052 6.7091 9.98947 6.78629 9.97017L9.33333 9.33342L11.9104 8.68914C11.969 8.67449 12.0226 8.64418 12.0653 8.60146L13.9024 6.76438C13.9649 6.70187 14.0497 6.66675 14.1381 6.66675L17 6.66675C17.1841 6.66675 17.3333 6.81599 17.3333 7.00008L17.3333 7.86201C17.3333 7.95042 17.2982 8.0352 17.2357 8.09771L17.1699 8.16351C16.9701 8.36335 17.094 8.70559 17.3754 8.73118L23.5136 9.2892C23.7474 9.31045 23.8866 9.56027 23.7816 9.77023L23.4255 10.4825C23.369 10.5954 23.2536 10.6667 23.1273 10.6667L21.4714 10.6667C21.383 10.6667 21.2982 10.7019 21.2357 10.7644L20.3814 11.6187C20.2062 11.7939 20.2766 12.0923 20.5117 12.1706L21.869 12.6231C21.9529 12.651 22.0222 12.7112 22.0617 12.7902L22.5176 13.7019C22.5999 13.8666 22.5332 14.0668 22.3685 14.1492L21.6315 14.5177C21.4668 14.6 21.4001 14.8002 21.4824 14.9649L21.7843 15.5686C21.8834 15.7668 21.7392 16.0001 21.5176 16.0001C21.4047 16.0001 21.3014 15.9363 21.2509 15.8353L20.8735 15.0804C20.7717 14.8769 20.5005 14.8329 20.3396 14.9938L19.569 15.7644C19.4389 15.8946 19.4389 16.1056 19.569 16.2358L19.9024 16.5691C19.9649 16.6316 20 16.7164 20 16.8048L20 17.7941C20 17.9203 19.9287 18.0357 19.8157 18.0922L18.737 18.6316C18.6908 18.6547 18.6397 18.6667 18.588 18.6667L17.4714 18.6667C17.383 18.6667 17.2982 18.7019 17.2357 18.7644L16.9024 19.0977C16.7722 19.2279 16.7722 19.4389 16.9024 19.5691L17.2357 19.9025C17.2982 19.965 17.3333 20.0497 17.3333 20.1382L17.3333 20.7941C17.3333 21.0419 17.0726 21.203 16.8509 21.0922L16.0484 20.6909C16.0163 20.6749 15.9871 20.6538 15.9618 20.6285L14.7049 19.3717C14.6796 19.3463 14.6585 19.3171 14.6425 19.285L14.332 18.664C14.2033 18.4067 13.8311 18.4222 13.7243 18.6893L12.7505 21.1239C12.6999 21.2504 12.5773 21.3334 12.441 21.3334L12.1784 21.3334C12.0669 21.3334 11.9629 21.2777 11.901 21.185L10.7226 19.4174C10.6861 19.3626 10.6667 19.2983 10.6667 19.2325L10.6667 18.2603C10.6667 18.1074 10.5626 17.9741 10.4142 17.937L8.41418 17.437C8.2038 17.3844 8 17.5435 8 17.7603L8 17.7941C8 17.9203 8.07133 18.0357 8.18426 18.0922L8.91968 18.4599C9.12318 18.5617 9.16719 18.8329 9.00631 18.9938L8.66667 19.3334L7.50322 20.4969C7.40176 20.5983 7.24677 20.6235 7.11844 20.5593L6.12349 20.0618C6.04442 20.0223 5.98429 19.953 5.95634 19.8691L5.35044 18.0514C5.33911 18.0174 5.33333 17.9818 5.33333 17.946L5.33333 17.4715C5.33333 17.3831 5.36845 17.2983 5.43096 17.2358L5.61863 17.0481C5.79384 16.8729 5.72341 16.5746 5.48833 16.4962L4.22792 16.0761C4.09181 16.0307 4 15.9033 4 15.7598L4 15.0001C4 14.816 4.14924 14.6667 4.33333 14.6667L5.92131 14.6667C5.97306 14.6667 6.0241 14.6788 6.07038 14.7019L7.03519 15.1843C7.19985 15.2667 7.40007 15.1999 7.4824 15.0353L7.85093 14.2982C7.93326 14.1336 7.86652 13.9333 7.70186 13.851L5.63148 12.8158C5.46682 12.7335 5.40007 12.5333 5.4824 12.3686ZM10 14.6667C10.3682 14.6667 10.6667 14.3683 10.6667 14.0001C10.6667 13.6319 10.3682 13.3334 10 13.3334C9.63181 13.3334 9.33333 13.6319 9.33333 14.0001C9.33333 14.3683 9.63181 14.6667 10 14.6667ZM22.6667 16.6667L22.6667 17.3334L21.9024 18.0977C21.6924 18.3077 21.8411 18.6667 22.1381 18.6667L22.4607 18.6667C22.5869 18.6667 22.7023 18.5954 22.7588 18.4825L23.3333 17.3334L22.6667 16.6667ZM22.6667 16.6667L23.0352 16.4825C23.2755 16.3623 23.19 16.0001 22.9213 16.0001C22.7807 16.0001 22.6667 16.1141 22.6667 16.2547L22.6667 16.6667ZM14 21.3334C14.3682 21.3334 14.6667 21.0349 14.6667 20.6667C14.6667 20.2986 14.3682 20.0001 14 20.0001C13.6318 20.0001 13.3333 20.2986 13.3333 20.6667C13.3333 21.0349 13.6318 21.3334 14 21.3334Z"/></g></svg>

<svg xmlns="http://www.w3.org/2000/svg" fill="none" viewBox="0 0 28 28" focusable="false"><path fill="none" d="M0 0h28v28H0z"/><rect width="28" height="20" y="4" fill="#FFF" rx="3"/><rect width="28" height="20" y="4" rx="3"/><mask id="CAS_svg__a" width="28" height="20" x="0" y="4" mask-type="alpha" maskUnits="userSpaceOnUse"><rect width="28" height="20" y="4" fill="#FFF" rx="3"/><rect width="28" height="20" y="4" stroke="#979797" stroke-opacity="0" stroke-width="0" rx="3"/></mask><g mask="url(#CAS_svg__a)"><path fill="#19BFBF" d="M0 4h28v20H0z"/><path d="M0 4h28v20H0z"/></g><g mask="url(#CAS_svg__a)"><mask id="CAS_svg__b" fill="#fff"><path fill-rule="evenodd" d="m5.482 12.369.456-.912c.04-.08.046-.17.018-.255l-.368-1.105a.333.333 0 0 1 .465-.404l.503.252a.33.33 0 0 0 .23.025l2.547-.637 2.577-.644a.33.33 0 0 0 .155-.088l1.837-1.837a.33.33 0 0 1 .236-.097H17c.184 0 .333.149.333.333v.862a.33.33 0 0 1-.097.236l-.066.066c-.2.2-.076.542.205.567l6.139.558a.333.333 0 0 1 .268.481l-.357.713a.33.33 0 0 1-.298.184h-1.656a.33.33 0 0 0-.235.097l-.855.855a.333.333 0 0 0 .13.552l1.358.452a.33.33 0 0 1 .193.167l.456.912a.333.333 0 0 1-.15.447l-.736.369a.333.333 0 0 0-.15.447l.302.604a.298.298 0 0 1-.533.266l-.378-.755a.333.333 0 0 0-.533-.086l-.771.77a.333.333 0 0 0 0 .472l.333.333a.33.33 0 0 1 .098.236v.99a.33.33 0 0 1-.184.297l-1.079.54a.33.33 0 0 1-.149.035h-1.117a.33.33 0 0 0-.235.097l-.334.334a.333.333 0 0 0 0 .471l.334.334a.33.33 0 0 1 .097.235v.656c0 .248-.26.409-.482.298l-.803-.401a.3.3 0 0 1-.086-.062l-1.257-1.257a.3.3 0 0 1-.062-.087l-.311-.621a.333.333 0 0 0-.608.025l-.973 2.435a.33.33 0 0 1-.31.21h-.263a.33.33 0 0 1-.277-.149l-1.178-1.768a.33.33 0 0 1-.056-.184v-.973a.33.33 0 0 0-.253-.323l-2-.5A.333.333 0 0 0 8 17.76v.034c0 .126.071.242.184.298l.736.368a.333.333 0 0 1 .086.534l-.34.34-1.163 1.163a.33.33 0 0 1-.385.062l-.995-.497a.33.33 0 0 1-.167-.193l-.606-1.818a.3.3 0 0 1-.017-.105v-.475c0-.088.035-.173.098-.235l.188-.188a.333.333 0 0 0-.13-.552l-1.261-.42A.33.33 0 0 1 4 15.76V15c0-.184.15-.333.333-.333h1.588q.079 0 .15.035l.964.482a.333.333 0 0 0 .447-.149l.369-.737a.333.333 0 0 0-.15-.447l-2.07-1.035a.333.333 0 0 1-.149-.447M10.667 14a.667.667 0 1 1-1.334 0 .667.667 0 0 1 1.334 0m12 2.667v.666l-.765.765a.333.333 0 0 0 .236.569h.323a.33.33 0 0 0 .298-.184l.574-1.15zm0 0 .368-.184c.24-.12.155-.483-.114-.483a.255.255 0 0 0-.254.255zm-8 4a.667.667 0 1 1-1.334 0 .667.667 0 0 1 1.334 0" clip-rule="evenodd"/></mask><path fill="#FFF" fill-rule="evenodd" d="m5.482 12.369.456-.912c.04-.08.046-.17.018-.255l-.368-1.105a.333.333 0 0 1 .465-.404l.503.252a.33.33 0 0 0 .23.025l2.547-.637 2.577-.644a.33.33 0 0 0 .155-.088l1.837-1.837a.33.33 0 0 1 .236-.097H17c.184 0 .333.149.333.333v.862a.33.33 0 0 1-.097.236l-.066.066c-.2.2-.076.542.205.567l6.139.558a.333.333 0 0 1 .268.481l-.357.713a.33.33 0 0 1-.298.184h-1.656a.33.33 0 0 0-.235.097l-.855.855a.333.333 0 0 0 .13.552l1.358.452a.33.33 0 0 1 .193.167l.456.912a.333.333 0 0 1-.15.447l-.736.369a.333.333 0 0 0-.15.447l.302.604a.298.298 0 0 1-.533.266l-.378-.755a.333.333 0 0 0-.533-.086l-.771.77a.333.333 0 0 0 0 .472l.333.333a.33.33 0 0 1 .098.236v.99a.33.33 0 0 1-.184.297l-1.079.54a.33.33 0 0 1-.149.035h-1.117a.33.33 0 0 0-.235.097l-.334.334a.333.333 0 0 0 0 .471l.334.334a.33.33 0 0 1 .097.235v.656c0 .248-.26.409-.482.298l-.803-.401a.3.3 0 0 1-.086-.062l-1.257-1.257a.3.3 0 0 1-.062-.087l-.311-.621a.333.333 0 0 0-.608.025l-.973 2.435a.33.33 0 0 1-.31.21h-.263a.33.33 0 0 1-.277-.149l-1.178-1.768a.33.33 0 0 1-.056-.184v-.973a.33.33 0 0 0-.253-.323l-2-.5A.333.333 0 0 0 8 17.76v.034c0 .126.071.242.184.298l.736.368a.333.333 0 0 1 .086.534l-.34.34-1.163 1.163a.33.33 0 0 1-.385.062l-.995-.497a.33.33 0 0 1-.167-.193l-.606-1.818a.3.3 0 0 1-.017-.105v-.475c0-.088.035-.173.098-.235l.188-.188a.333.333 0 0 0-.13-.552l-1.261-.42A.33.33 0 0 1 4 15.76V15c0-.184.15-.333.333-.333h1.588q.079 0 .15.035l.964.482a.333.333 0 0 0 .447-.149l.369-.737a.333.333 0 0 0-.15-.447l-2.07-1.035a.333.333 0 0 1-.149-.447M10.667 14a.667.667 0 1 1-1.334 0 .667.667 0 0 1 1.334 0m12 2.667v.666l-.765.765a.333.333 0 0 0 .236.569h.323a.33.33 0 0 0 .298-.184l.574-1.15zm0 0 .368-.184c.24-.12.155-.483-.114-.483a.255.255 0 0 0-.254.255zm-8 4a.667.667 0 1 1-1.334 0 .667.667 0 0 1 1.334 0" clip-rule="evenodd" mask="url(#CAS_svg__b)"/></g></svg>
